X:1
T:Norges Storthing
T:Norges Storthing
T:Bind 1, No. 18
T:Bernhard Klein
T:H. Wergeland
C:B. Klein
Z:H. Wergeland
%%score [ 1 2 3 4 ]
L:1/8
Q:1/4=114
M:4/4
K:Bb
V:1 treble-8 nm="T1"
V:2 treble-8 nm="T2"
V:3 bass nm="B1"
V:4 bass nm="B2"
V:1
!mf!"^Moderato" d2 c2 | B3 F B2 c2 | d2 B2!<(! d2 e2!<)! | f3 d!>(! g2 e2!>)! | c4!mf! d2 c2 | %5
w: 1.Nor- ges|Høj- tids- stund er|kom- men, aab- net|har sig Thin- gets|Hal. Højt og|
 B3 F B2 c2 | d2 B2 c2"^cresc." c2 | (cd)(=ef)!f! g2 e2 | f4!mf! f2 f2 | !>!g2 d2!<(! e2 f2!<)! | %10
w: lydt i Hel- lig-|dom- men rø- ster|nu _ hver _ Nor- ges|Dal. Ag- de-|sid og Trøn- de-|
!>(! f2 e2!>)! c2 (de) | !>!f2 c2!<(! d2 e2!<)! |!>(! (e2 d2)!>)! |:!f! F2 F2 | B2 F2!<(! c2 F2 | %15
w: la- gen sam- men _|nu kan veks- le|Ord; _|Dov- re|i sin Døl er|
 d2!<)! B2 e2 c2 |!ff! !>!f3 e d2 c2 | B4 :| %18
w: dra- gen nu til|Thin- ge for sit|Nord.|
V:2
!mf! B2 A2 | F3 F F2 A2 | B2 B2!<(! B2 c2!<)! | d3 B!>(! B2 c2!>)! | A4!mf! B2 A2 | F3 F F2 A2 | %6
w: 1.Nor- ges|Høj- tids- stund er|kom- men, aab- net|har sig Thin- gets|Hal. Højt og|lydt i Hel- lig-|
 B2 B2 B2"^cresc." B2 | (AB)(cd)!f! d2 B2 | A4!mf! d2 c2 | !>!=B2 B2!<(! c2 d2!<)! | %10
w: dom- men rø- ster|nu _ hver _ Nor- ges|Dal. Ag- de-|sid og Trøn- de-|
!>(! d2 c2!>)! c2 _B2 | !>!A2 A2!<(! B2 c2!<)! |!>(! (c2 B2)!>)! |:!f! F2 F2 | F2 F2!<(! A2 F2 | %15
w: la- gen sam- men|nu kan veks- le|Ord; _|Dov- re|i sin Døl er|
 B2!<)! B2 B2 A2 |!ff! !>!B3 c B2 A2 | F4 :| %18
w: dra- gen nu til|Thin- ge for sit|Nord.|
V:3
!mf! F,2 F,2 | D,3 D, F,2 F,2 | F,2 D,2!<(! B,2 B,2!<)! | B,3 B,!>(! G,2 G,2!>)! | %4
w: 1.Nor- ges|Høj- tids- stund er|kom- men, aab- net|har sig Thin- gets|
 F,4!mf! F,2 F,2 | D,3 D, F,2 F,2 | F,2 F,2 =E,2"^cresc." G,2 | F,2 A,2!f! B,2 G,2 | %8
w: Hal. Højt og|lydt i Hel- lig-|dom- men rø- ster|nu hver Nor- ges|
 F,4!mf! B,2 C2 | !>!D2 =B,2!<(! G,2 B,2!<)! |!>(! =B,2 G,2!>)! A,2 _B,2 | %11
w: Dal. Ag- de-|sid og Trøn- de-|la- gen sam- men|
 !>!C2 A,2!<(! F,2 A,2!<)! |!>(! (A,2 F,2)!>)! |:!f! F,2 F,2 | F,2 F,2!<(! F,2 F,2 | %15
w: nu kan veks- le|Ord; _|Dov- re|i sin Døl er|
 F,2!<)! F,2 G,2 F,2 |!ff! !>!F,3 G, F,2 E,2 | D,4 :| %18
w: dra- gen nu til|Thin- ge for sit|Nord.|
V:4
!mf! B,,2 F,2 | B,,3 B,, D,2 C,2 | B,,2 B,,2!<(! B,2 B,2!<)! | B,,3 B,,!>(! E,2 E,2!>)! | %4
w: 1.Nor- ges|Høj- tids- stund er|kom- men, aab- net|har sig Thin- gets|
 F,4!mf! B,,2 F,2 | B,,3 B,, D,2 C,2 | B,,2 D,2 C,2"^cresc." =E,2 | F,2 D,2!f! B,,2 C,2 | %8
w: Hal. Højt og|lydt i Hel- lig-|dom- men rø- ster|nu hver Nor- ges|
 F,4!mf! B,2 _A,2 | !>!G,2 G,2!<(! C,2 G,,2!<)! |!>(! G,,2 C,2!>)! F,2 F,2 | %11
w: Dal. Ag- de-|sid og Trøn- de-|la- gen sam- men|
 !>!F,2 F,2!<(! B,,2 F,,2!<)! |!>(! B,,4!>)! |:!f! F,2 F,2 | D,2 F,2!<(! F,2 F,2 | %15
w: nu kan veks- le|Ord;|Dov- re|i sin Døl er|
 B,,2!<)! D,2 C,2 (F,E,) |!ff! !>!D,3 E, F,2 F,,2 | B,,4 :| %18
w: dra- gen nu til _|Thin- ge for sit|Nord.|

